swiss/communes/0119.svg

<?xml version="1.0" encoding="UTF-8" standalone="no"?>
<!-- Created with Inkscape (http://www.inkscape.org/) -->
<svg
   xmlns:svg="http://www.w3.org/2000/svg"
   xmlns="http://www.w3.org/2000/svg"
   version="1.0"
   width="224.32741"
   height="262.96204"
   id="svg2780">
  <defs
     id="defs2782" />
  <g
     transform="translate(-31.312605,-761.02874)"
     id="layer1">
    <path
       d="M 31.812605,761.52875 L 35.873099,932.10737 C 38.773444,1053.9492 248.17916,1053.9492 251.07951,932.10737 L 255.14001,761.52875 L 31.812605,761.52875 z "
       style="opacity:1;color:#000000;fill:#2972ce;fill-opacity:1;fill-rule:nonzero;stroke:#000000;stroke-width:1;stroke-linecap:butt;stroke-linejoin:bevel;marker:none;marker-start:none;marker-mid:none;marker-end:none;stroke-miterlimit:4;stroke-dasharray:none;stroke-dashoffset:0;stroke-opacity:1;visibility:visible;display:inline;overflow:visible;enable-background:accumulate"
       id="path3282" />
    <path
       d="M 16.96875,125 L 17.90625,163.875 C 18.187168,175.6762 20.407314,186.3286 24.1875,195.84375 L 125.5,125 L 16.96875,125 z "
       transform="translate(17.97221,768.24072)"
       style="opacity:1;color:#000000;fill:#fcea00;fill-opacity:1;fill-rule:nonzero;stroke:#000000;stroke-width:1;stroke-linecap:butt;stroke-linejoin:bevel;marker:none;marker-start:none;marker-mid:none;marker-end:none;stroke-miterlimit:4;stroke-dasharray:none;stroke-dashoffset:0;stroke-opacity:1;visibility:visible;display:inline;overflow:visible;enable-background:accumulate"
       id="path5117" />
    <path
       d="M 125.5,125 L 226.8125,195.84375 C 230.59372,186.32752 232.81279,175.67796 233.09375,163.875 L 234.03125,125 L 125.5,125 z "
       transform="translate(17.97221,768.24072)"
       style="fill:#fcea00;fill-opacity:1;stroke:#000000;stroke-linejoin:bevel"
       id="path5119" />
    <path
       d="M 125.5,124.78125 L 85.96875,249.375 C 111.20148,257.2084 139.79852,257.2084 165.03125,249.375 L 125.5,124.78125 z "
       transform="translate(17.97221,768.24072)"
       style="opacity:1;color:#000000;fill:#fcea00;fill-opacity:1;fill-rule:nonzero;stroke:#000000;stroke-width:1;stroke-linecap:butt;stroke-linejoin:bevel;marker:none;marker-start:none;marker-mid:none;marker-end:none;stroke-miterlimit:4;stroke-dasharray:none;stroke-dashoffset:0;stroke-opacity:1;visibility:visible;display:inline;overflow:visible;enable-background:accumulate"
       id="path4130" />
    <path
       d="M 12.987993,47.194233 C 21.364631,77.519775 40.106422,94.26048 54.073735,94.26048 L 202.09124,94.26048 C 207.24112,92.266978 208.90237,76.568152 208.57012,66.600643 L 62.29693,66.600643 C 52.611215,66.600643 30.680321,60.401182 12.987993,47.194233 z "
       transform="translate(33.87846,760.97954)"
       style="fill:#ffffff;fill-opacity:1;fill-rule:evenodd;stroke:#000000;stroke-width:1px;stroke-linecap:butt;stroke-linejoin:miter;stroke-opacity:1"
       id="path6375" />
    <path
       d="M 12.987993,47.194233 C 25.769689,53.027652 51.559573,54.262552 54.249937,54.262552 L 197.86238,54.262552 L 208.57012,66.600643 L 62.29693,66.600643 C 52.611215,66.600643 30.680321,60.401182 12.987993,47.194233 z "
       transform="translate(33.87846,760.97954)"
       style="fill:#ffffff;fill-opacity:1;fill-rule:evenodd;stroke:#000000;stroke-width:1px;stroke-linecap:butt;stroke-linejoin:miter;stroke-opacity:1"
       id="path7348" />
    <path
       d="M 43.517417,57.186157 C 45.463886,57.5139 53.261134,58.315206 55.271733,58.315206 L 189.75707,58.315206 L 193.76912,62.724192 L 54.006566,62.724192 C 48.531643,62.724192 44.998894,60.853835 42.885186,59.678256 C 40.838423,58.53991 41.485224,56.84398 43.517417,57.186157 z "
       transform="translate(33.87846,760.97954)"
       style="fill:#ffffff;fill-opacity:1;fill-rule:evenodd;stroke:#000000;stroke-width:1px;stroke-linecap:butt;stroke-linejoin:miter;stroke-opacity:1"
       id="path7350" />
  </g>
</svg>

<svg xmlns="http://www.w3.org/2000/svg" version="1.0" width="224.327" height="262.962"><path d="m31.813 761.529 4.06 170.578c2.9 121.842 212.306 121.842 215.207 0l4.06-170.578H31.813z" style="opacity:1;color:#000;fill:#2972ce;fill-opacity:1;fill-rule:nonzero;stroke:#000;stroke-width:1;stroke-linecap:butt;stroke-linejoin:bevel;marker:none;marker-start:none;marker-mid:none;marker-end:none;stroke-miterlimit:4;stroke-dasharray:none;stroke-dashoffset:0;stroke-opacity:1;visibility:visible;display:inline;overflow:visible;enable-background:accumulate" transform="translate(-31.313 -761.029)"/><path d="m16.969 125 .937 38.875c.281 11.801 2.501 22.454 6.282 31.969L125.5 125H16.969z" transform="translate(-13.34 7.212)" style="opacity:1;color:#000;fill:#fcea00;fill-opacity:1;fill-rule:nonzero;stroke:#000;stroke-width:1;stroke-linecap:butt;stroke-linejoin:bevel;marker:none;marker-start:none;marker-mid:none;marker-end:none;stroke-miterlimit:4;stroke-dasharray:none;stroke-dashoffset:0;stroke-opacity:1;visibility:visible;display:inline;overflow:visible;enable-background:accumulate"/><path d="m125.5 125 101.313 70.844c3.78-9.516 6-20.166 6.28-31.969l.938-38.875H125.5z" transform="translate(-13.34 7.212)" style="fill:#fcea00;fill-opacity:1;stroke:#000;stroke-linejoin:bevel"/><path d="M125.5 124.781 85.969 249.375c25.232 7.833 53.83 7.833 79.062 0L125.5 124.781z" transform="translate(-13.34 7.212)" style="opacity:1;color:#000;fill:#fcea00;fill-opacity:1;fill-rule:nonzero;stroke:#000;stroke-width:1;stroke-linecap:butt;stroke-linejoin:bevel;marker:none;marker-start:none;marker-mid:none;marker-end:none;stroke-miterlimit:4;stroke-dasharray:none;stroke-dashoffset:0;stroke-opacity:1;visibility:visible;display:inline;overflow:visible;enable-background:accumulate"/><path d="M12.988 47.194C21.365 77.52 40.106 94.26 54.074 94.26H202.09c5.15-1.993 6.811-17.692 6.48-27.66H62.296c-9.686 0-31.617-6.199-49.309-19.406z" transform="translate(2.566 -.05)" style="fill:#fff;fill-opacity:1;fill-rule:evenodd;stroke:#000;stroke-width:1px;stroke-linecap:butt;stroke-linejoin:miter;stroke-opacity:1"/><path d="M12.988 47.194c12.782 5.834 38.572 7.069 41.262 7.069h143.612L208.57 66.6H62.297c-9.686 0-31.617-6.2-49.309-19.407z" transform="translate(2.566 -.05)" style="fill:#fff;fill-opacity:1;fill-rule:evenodd;stroke:#000;stroke-width:1px;stroke-linecap:butt;stroke-linejoin:miter;stroke-opacity:1"/><path d="M43.517 57.186c1.947.328 9.744 1.13 11.755 1.13h134.485l4.012 4.408H54.007c-5.475 0-9.008-1.87-11.122-3.046-2.047-1.138-1.4-2.834.632-2.492z" transform="translate(2.566 -.05)" style="fill:#fff;fill-opacity:1;fill-rule:evenodd;stroke:#000;stroke-width:1px;stroke-linecap:butt;stroke-linejoin:miter;stroke-opacity:1"/></svg>
